ui/img/icon-combine.svg

<?xml version="1.0" encoding="UTF-8" standalone="no"?>
<!-- Created with Inkscape (http://www.inkscape.org/) -->

<svg
   xmlns:dc="http://purl.org/dc/elements/1.1/"
   xmlns:cc="http://creativecommons.org/ns#"
   xmlns:rdf="http://www.w3.org/1999/02/22-rdf-syntax-ns#"
   xmlns:svg="http://www.w3.org/2000/svg"
   xmlns="http://www.w3.org/2000/svg"
   xmlns:xlink="http://www.w3.org/1999/xlink"
   xmlns:sodipodi="http://sodipodi.sourceforge.net/DTD/sodipodi-0.dtd"
   xmlns:inkscape="http://www.inkscape.org/namespaces/inkscape"
   width="256"
   height="256"
   viewBox="0 0 67.733332 67.733336"
   version="1.1"
   id="svg8"
   inkscape:version="0.92.2 5c3e80d, 2017-08-06"
   sodipodi:docname="icon-combine.svg">
  <defs
     id="defs2">
    <linearGradient
       id="black-gradient">
      <stop
         offset="0"
         style="stop-color:#333333;stop-opacity:1"
         id="black1" />
      <stop
         offset="1"
         style="stop-color:#212121;stop-opacity:1"
         id="black2" />
    </linearGradient>
    <linearGradient
       id="blue-gradient">
      <stop
         offset="0"
         style="stop-color:#33ccff;stop-opacity:1"
         id="blue1" />
      <stop
         offset="1"
         style="stop-color:#06c1ff;stop-opacity:1"
         id="blue2" />
    </linearGradient>
    <linearGradient
       gradientTransform="matrix(1.1276503,0,0,1.1276503,-4033.1004,1421.0367)"
       gradientUnits="userSpaceOnUse"
       xlink:href="#black-gradient"
       y2="-1028.5905"
       x2="3494.25"
       y1="-1044.3878"
       x1="3494.25"
       id="black" />
    <linearGradient
       gradientTransform="matrix(1.1276503,0,0,1.1276503,-3971.5228,1427.6343)"
       gradientUnits="userSpaceOnUse"
       xlink:href="#blue-gradient"
       y2="-1026.9196"
       x2="3550.75"
       y1="-1045.5128"
       x1="3550.75"
       id="blue" />
  </defs>
  <sodipodi:namedview
     id="base"
     pagecolor="#525252"
     bordercolor="#ffffff"
     borderopacity="1"
     inkscape:pageopacity="0"
     inkscape:pageshadow="2"
     inkscape:zoom="3.1571564"
     inkscape:cx="52.141638"
     inkscape:cy="119.67298"
     inkscape:document-units="px"
     inkscape:current-layer="layer1"
     showgrid="true"
     units="px"
     guidecolor="#ff004a"
     guideopacity="0.49803922"
     showguides="true"
     inkscape:guide-bbox="true"
     inkscape:snap-grids="true"
     inkscape:object-nodes="false"
     inkscape:snap-others="false"
     inkscape:snap-nodes="true"
     inkscape:snap-global="true">
    <inkscape:grid
       type="xygrid"
       id="grid992"
       empspacing="10"
       spacingx="0.26458334"
       spacingy="0.26458334"
       empcolor="#1d00ff"
       empopacity="0.25098039"
       color="#ff0031"
       opacity="0.1254902" />
    <sodipodi:guide
       position="8.2020833,13.493751"
       orientation="1,0"
       id="guide1183"
       inkscape:locked="false" />
    <sodipodi:guide
       position="37.041667,50.270836"
       orientation="0,1"
       id="guide2597"
       inkscape:locked="false" />
    <sodipodi:guide
       position="29.104167,18.520834"
       orientation="0,1"
       id="guide2599"
       inkscape:locked="false" />
  </sodipodi:namedview>
  <metadata
     id="metadata5">
    <rdf:RDF>
      <cc:Work
         rdf:about="">
        <dc:format>image/svg+xml</dc:format>
        <dc:type
           rdf:resource="http://purl.org/dc/dcmitype/StillImage" />
        <dc:title />
      </cc:Work>
    </rdf:RDF>
  </metadata>
  <g
     inkscape:label="Layer 1"
     inkscape:groupmode="layer"
     id="layer1"
     transform="translate(0,-229.26665)">
    <g
       id="g2087"
       transform="translate(-12.202849)">
      <path
         inkscape:connector-curvature="0"
         id="rect1558"
         d="m 61.728236,275.08598 4.682349,2.30383 -20.341069,10.00827 -20.341069,-10.00827 4.682351,-2.30383"
         style="opacity:1;fill:none;fill-opacity:1;stroke:#ffffff;stroke-width:2.64583325;stroke-linecap:round;stroke-linejoin:round;stroke-miterlimit:4;stroke-dasharray:none;stroke-dashoffset:0;stroke-opacity:1;paint-order:markers stroke fill" />
      <path
         id="rect1560"
         d="m 50.235579,261.20968 16.175006,7.95848 -20.341069,10.00827 -20.341069,-10.00827 15.919689,-7.83286"
         style="opacity:1;fill:none;fill-opacity:1;stroke:#ffffff;stroke-width:2.64583325;stroke-linecap:round;stroke-linejoin:round;stroke-miterlimit:4;stroke-dasharray:none;stroke-dashoffset:0;stroke-opacity:1;paint-order:markers stroke fill"
         inkscape:connector-curvature="0" />
      <path
         style="opacity:1;fill:none;fill-opacity:1;stroke:#ffffff;stroke-width:2.64583325;stroke-linecap:round;stroke-linejoin:round;stroke-miterlimit:4;stroke-dasharray:none;stroke-dashoffset:0;stroke-opacity:1;paint-order:markers stroke fill"
         d="m 61.728236,283.36497 4.682349,2.30384 -20.341069,10.00827 -20.341069,-10.00827 4.682351,-2.30383"
         id="path2078"
         inkscape:connector-curvature="0" />
    </g>
    <path
       style="opacity:1;fill:none;fill-opacity:1;stroke:#ffffff;stroke-width:10;stroke-linecap:round;stroke-linejoin:round;stroke-miterlimit:4;stroke-dasharray:none;stroke-dashoffset:0;stroke-opacity:1;paint-order:normal"
       d="M 61.529296 71.600009 L 4.9999998 71.600009 L 4.9999998 5.0000091 L 4.9999998 5.0000091 L 105 5.0000091 L 105 13.552794 "
       id="path2099"
       transform="matrix(0.26458334,0,0,0.26458334,0,229.26665)" />
    <path
       style="opacity:1;fill:none;fill-opacity:1;stroke:#ffffff;stroke-width:10;stroke-linecap:round;stroke-linejoin:round;stroke-miterlimit:4;stroke-dasharray:none;stroke-dashoffset:0;stroke-opacity:1;paint-order:normal"
       d="M 151 13.552793 L 151 5.0000091 L 151 5.0000091 L 251 5.0000091 L 251 71.600009 L 194.4707 71.600009 "
       id="path2096"
       transform="matrix(0.26458334,0,0,0.26458334,0,229.26665)" />
    <rect
       style="opacity:1;fill:none;fill-opacity:1;stroke:#ffffff;stroke-width:2.64583325;stroke-linecap:round;stroke-linejoin:round;stroke-miterlimit:4;stroke-dasharray:none;stroke-dashoffset:0;stroke-opacity:1;paint-order:normal"
       id="rect2089"
       width="26.458334"
       height="17.62125"
       x="20.637501"
       y="237.0425" />
    <path
       style="fill:none;fill-rule:evenodd;stroke:#ffffff;stroke-width:2.64583325;stroke-linecap:round;stroke-linejoin:round;stroke-miterlimit:4;stroke-dasharray:none;stroke-opacity:1"
       d="m 33.866667,259.29849 v 7.36556"
       id="path2101"
       inkscape:connector-curvature="0" />
    <path
       style="fill:none;fill-rule:evenodd;stroke:#ffffff;stroke-width:2.64583325;stroke-linecap:round;stroke-linejoin:round;stroke-miterlimit:4;stroke-dasharray:none;stroke-opacity:1"
       d="M 39.158334,266.79582 33.866667,272.08748 28.575,266.79582"
       id="path2103"
       inkscape:connector-curvature="0" />
  </g>
</svg>

<?xml version="1.0" encoding="UTF-8"?>
<svg width="256" height="256" version="1.1" viewBox="0 0 67.733 67.733" xmlns="http://www.w3.org/2000/svg" xmlns:cc="http://creativecommons.org/ns#" xmlns:dc="http://purl.org/dc/elements/1.1/" xmlns:rdf="http://www.w3.org/1999/02/22-rdf-syntax-ns#" xmlns:xlink="http://www.w3.org/1999/xlink">
<metadata>
<rdf:RDF>
<cc:Work rdf:about="">
<dc:format>image/svg+xml</dc:format>
<dc:type rdf:resource="http://purl.org/dc/dcmitype/StillImage"/>
<dc:title/>
</cc:Work>
</rdf:RDF>
</metadata>
<g transform="translate(0 -229.27)" fill="none" stroke="#fff" stroke-linecap="round" stroke-linejoin="round">
<g transform="translate(-12.203)" stroke-width="2.6458">
<path d="m61.728 275.09 4.6823 2.3038-20.341 10.008-20.341-10.008 4.6824-2.3038" style="paint-order:markers stroke fill"/>
<path d="m50.236 261.21 16.175 7.9585-20.341 10.008-20.341-10.008 15.92-7.8329" style="paint-order:markers stroke fill"/>
<path d="m61.728 283.36 4.6823 2.3038-20.341 10.008-20.341-10.008 4.6824-2.3038" style="paint-order:markers stroke fill"/>
</g>
<path transform="matrix(.26458 0 0 .26458 0 229.27)" d="m61.529 71.6h-56.529v-66.6h100v8.5528" stroke-width="10" style="paint-order:normal"/>
<path transform="matrix(.26458 0 0 .26458 0 229.27)" d="m151 13.553v-8.5528h100v66.6h-56.529" stroke-width="10" style="paint-order:normal"/>
<rect x="20.638" y="237.04" width="26.458" height="17.621" stroke-width="2.6458" style="paint-order:normal"/>
<path d="m33.867 259.3v7.3656" stroke-width="2.6458"/>
<path d="m39.158 266.8-5.2917 5.2917-5.2917-5.2917" stroke-width="2.6458"/>
</g>
</svg>
